svg/fluentui-system-icons/ic_fluent_panel_left_header_20_regular.svg

<svg width="20" height="20" viewBox="0 0 20 20" fill="none" xmlns="http://www.w3.org/2000/svg">
<path d="M5 3C3.34315 3 2 4.34315 2 6V13C2 14.6569 3.34315 16 5 16H15C16.6569 16 18 14.6569 18 13V6C18 4.34315 16.6569 3 15 3H5ZM8.5 7V4H15C16.1046 4 17 4.89543 17 6V7H8.5ZM8.5 8H17V13C17 14.1046 16.1046 15 15 15H8.5V8ZM5 4H7.5V15H5C3.89543 15 3 14.1046 3 13V6C3 4.89543 3.89543 4 5 4Z" fill="#212121"/>
</svg>

<svg xmlns="http://www.w3.org/2000/svg" width="20" height="20"><path d="M5 3a3 3 0 0 0-3 3v7a3 3 0 0 0 3 3h10a3 3 0 0 0 3-3V6a3 3 0 0 0-3-3H5Zm3.5 4V4H15a2 2 0 0 1 2 2v1H8.5Zm0 1H17v5a2 2 0 0 1-2 2H8.5V8ZM5 4h2.5v11H5a2 2 0 0 1-2-2V6a2 2 0 0 1 2-2Z"/></svg>
